src/images/svg/group.svg

<svg width="49" height="48" viewBox="0 0 49 48" fill="none" xmlns="http://www.w3.org/2000/svg">
<path d="M2.98972 18.837V23.084C2.98972 23.3121 3.09437 23.5271 3.27377 23.6688C6.17633 25.9532 9.81835 27.212 13.5294 27.212C14.6401 27.212 15.7517 27.0959 16.8386 26.8764C19.1553 27.9004 21.6212 28.4243 24.1736 28.4243C26.7342 28.4243 29.2007 27.9001 31.5092 26.8764C36.1455 27.8127 41.0857 26.8071 45.0728 23.6688C45.2522 23.5271 45.3567 23.3121 45.3567 23.084V18.837C45.3567 18.2137 45.0473 17.6457 44.4945 17.2963L38.6938 14.0329C39.9627 12.4227 40.9081 10.1302 41.0726 8.16368C41.554 4.77893 38.7954 1.19418 34.8243 1.19418C33.1546 1.19418 31.5673 1.88152 30.4026 3.03435C30.3623 3.07429 30.3163 3.10798 30.2771 3.14904C30.2412 3.18653 30.2122 3.23026 30.1773 3.26872C30.154 3.29423 30.1338 3.32242 30.1109 3.3483C28.976 1.27875 26.7946 0 24.2245 0C23.9748 0 23.7296 0.0171075 23.4866 0.0418018C23.4719 0.0409092 23.4593 0.0333968 23.4443 0.0333968C23.3063 0.0333968 23.0143 0.0696943 22.8582 0.114769C22.8351 0.121463 22.8185 0.137752 22.7966 0.14638C20.8774 0.534497 19.2516 1.69751 18.2772 3.38029C17.1053 2.01377 15.3826 1.19485 13.509 1.19485C7.64689 1.19485 5.04611 8.11266 9.67346 14.066L3.81928 17.316C3.29988 17.6449 2.98972 18.2137 2.98972 18.837ZM31.4946 25.2419C31.3689 25.3033 31.2444 25.3689 31.1177 25.4266L31.1175 25.4267C31.1166 25.4271 31.1157 25.4277 31.1148 25.428C28.9364 26.429 26.6012 26.9367 24.1736 26.9367C21.7533 26.9367 19.4181 26.429 17.2295 25.4266C16.1646 24.9421 15.1347 24.3262 14.162 23.5954V19.2902C14.162 19.1435 14.2332 19.0135 14.3153 18.9589L21.1283 15.1723C21.976 15.8919 23.0589 16.4196 24.1809 16.4196C25.2617 16.4196 26.429 15.8842 27.2595 15.1547L33.9898 18.9343C34.114 19.0142 34.1852 19.1435 34.1852 19.2902V23.5947C33.3283 24.2385 32.4259 24.7869 31.4946 25.2419ZM43.7312 18.5725C43.819 18.6277 43.8691 18.7243 43.8691 18.837V22.718C40.9164 24.9339 37.3635 25.9397 33.7639 25.6873C34.3177 25.3417 34.9207 24.9129 35.3881 24.5469C35.5675 24.406 35.6728 24.1903 35.6728 23.9615V19.2902C35.6728 18.6379 35.3451 18.0372 34.7575 17.6603L31.1824 15.6511L32.0518 15.1695C33.1063 16.0294 34.0118 16.2852 34.8243 16.2852C35.8181 16.2852 36.8644 15.7977 37.6413 15.147L43.7312 18.5725ZM34.8243 2.68178C36.895 2.68178 38.7138 4.03491 39.3562 5.89524C38.1068 5.74699 36.885 5.13031 36.0011 4.1824C35.8413 4.01103 35.614 3.92237 35.3779 3.94997C35.1454 3.97466 34.9385 4.10758 34.8185 4.30811C33.9702 5.72959 32.5792 6.67824 30.9971 6.94772C30.9972 6.94623 30.9969 6.94489 30.9969 6.9434C31.0039 6.61977 30.9851 6.29183 30.9481 5.96389C30.9443 5.93027 30.9412 5.89724 30.9369 5.864C30.889 5.49142 30.7768 5.02588 30.7546 4.9509C31.5992 3.5977 33.1682 2.68178 34.8243 2.68178ZM30.8341 8.46537C32.7134 8.25949 34.4131 7.31516 35.5805 5.82257C36.7312 6.76623 38.1909 7.33806 39.6333 7.40716C39.6222 10.095 37.4267 14.7976 34.8243 14.7976C32.8185 14.7976 31.1061 11.9291 30.4662 9.94033C30.6288 9.42882 30.7472 8.93679 30.8341 8.46537ZM30.9852 14.0593L29.6564 14.7951L28.3144 14.0414C28.812 13.4216 29.2681 12.702 29.6589 11.9213C30.0344 12.7109 30.4845 13.4364 30.9852 14.0593ZM28.98 9.69704C28.2627 11.8369 26.4227 14.932 24.1809 14.932C21.5675 14.932 19.342 10.6358 18.918 7.88833C19.0311 7.86029 22.5623 8.07785 24.9922 4.88701C26.2258 5.91881 27.8898 6.6017 29.5083 6.66946C29.5274 7.6393 29.2922 8.77881 28.98 9.69704ZM24.2245 1.48761C28.3939 1.48761 29.1877 5.07631 29.253 5.15076C27.7411 4.99724 26.3616 4.25656 25.4085 3.2374C25.2486 3.06603 25.0162 2.98027 24.7845 3.00571C24.5513 3.03115 24.3443 3.16481 24.2245 3.36675C23.3986 4.76406 22.1032 5.7496 20.6035 6.16843C20.0245 6.33021 19.3991 6.404 18.8539 6.39871C19.058 3.66598 21.2482 1.48761 24.2245 1.48761ZM18.6917 11.907C19.0775 12.6791 19.536 13.4166 20.0607 14.0645L18.7476 14.7944L17.3874 14.0298C17.9033 13.3723 18.3411 12.6366 18.6917 11.907ZM13.509 2.68245C15.1959 2.68245 16.7415 3.53849 17.6028 4.95313C17.5596 5.10308 17.4432 5.69999 17.4278 5.77466C16.3928 5.52698 15.4419 4.9756 14.6967 4.18099C14.5361 4.01029 14.3095 3.92527 14.0727 3.94997C13.8402 3.9754 13.6332 4.10907 13.5142 4.31026C12.5192 5.98925 10.6931 7.03206 8.7484 7.03258C8.98522 4.59231 11.0254 2.68245 13.509 2.68245ZM8.81377 8.5164C10.9512 8.49557 12.9692 7.48809 14.2775 5.82257C15.1713 6.55834 16.2328 7.04277 17.3607 7.26406C17.4045 8.12635 17.6292 9.17414 17.8862 9.94688C17.4755 11.2064 16.6874 12.7079 15.7101 13.705C15.7038 13.7112 15.6957 13.714 15.6896 13.7204C15.078 14.3647 14.2078 14.7983 13.5235 14.7983C11.1326 14.7983 9.26237 11.0362 8.81377 8.5164ZM4.47732 18.837C4.47732 18.7243 4.52745 18.6285 4.57833 18.5943L10.7521 15.1682C11.1225 15.4766 11.2077 15.5118 11.2822 15.5663L11.282 15.5668C12.0086 16.0497 12.6745 16.2903 13.5831 16.2903C14.5507 16.2903 15.4316 15.8803 16.2068 15.249C16.2505 15.2148 16.2975 15.1818 16.339 15.147L17.2201 15.6424L13.5505 17.6835C13.0021 18.0372 12.6744 18.6379 12.6744 19.2902V23.9615C12.6744 24.1896 12.7791 24.4053 12.9592 24.5462C13.4343 24.9194 14.0502 25.3547 14.5834 25.6881C10.9319 25.9372 7.3792 24.8956 4.47732 22.718V18.837Z" fill="#FF6B09"/>
<path d="M46.8879 31.1714C45.9727 30.5962 44.8461 30.5366 43.8771 31.0065L34.6979 35.4409C34.6659 33.7228 33.2638 32.3336 31.5375 32.3336L26.2743 32.335C23.679 30.0789 20.3624 28.6974 17.3465 28.6248C14.3724 28.5543 11.7027 28.5345 10.4576 28.5289V27.026H0V44.3013H10.4576V42.2325C13.3254 43.8778 20.8661 48 24.4446 48C24.5259 48 24.6051 47.9978 24.6813 47.9934C30.9746 47.6404 45.8172 37.196 46.7964 36.5023C47.7538 35.9466 48.3472 34.9181 48.3472 33.8089C48.3472 32.7302 47.8017 31.7445 46.8879 31.1714ZM8.96997 42.8137H1.48761V28.5136H8.96997V42.8137ZM46.0308 35.2267C46.0083 35.2391 45.9858 35.2529 45.9647 35.2682C45.8114 35.3771 30.5439 46.1746 24.5985 46.5087C24.5397 46.5116 24.4801 46.5131 24.4176 46.5131C21.2789 46.5131 13.6263 42.3843 10.4576 40.5117V30.0166C11.698 30.0222 14.3524 30.042 17.3108 30.1124C20.0659 30.1785 23.1247 31.494 25.4941 33.6309L25.7063 33.8227L31.5375 33.8212C32.4629 33.8212 33.2162 34.5737 33.2162 35.4991C33.2162 36.4246 32.4637 37.1778 31.5383 37.1778H20.8251V38.6654H31.5383C32.565 38.6654 33.4699 38.1663 34.0486 37.4062L44.5244 32.346C45.0386 32.0954 45.6124 32.1273 46.0976 32.4317C46.5822 32.7353 46.8596 33.2372 46.8596 33.8089C46.8596 34.3958 46.5421 34.9384 46.0308 35.2267Z" fill="#FF6B09"/>
<path d="M24.9174 18.2377H23.4298V19.6171H24.9174V18.2377Z" fill="#FF6B09"/>
<path d="M24.9174 20.9885H23.4298V22.3678H24.9174V20.9885Z" fill="#FF6B09"/>
<path d="M24.9174 23.7393H23.4298V25.1186H24.9174V23.7393Z" fill="#FF6B09"/>
</svg>

<svg xmlns="http://www.w3.org/2000/svg" fill="none" viewBox="0 0 49 48"><path fill="#FF6B09" d="M2.99 18.837v4.247c0 .228.104.443.284.585a16.65 16.65 0 0 0 10.255 3.543c1.111 0 2.223-.116 3.31-.336a18.027 18.027 0 0 0 7.335 1.548c2.56 0 5.027-.524 7.335-1.548 4.636.937 9.577-.069 13.564-3.207a.745.745 0 0 0 .284-.585v-4.247c0-.623-.31-1.191-.862-1.54l-5.801-3.264c1.269-1.61 2.214-3.903 2.379-5.87.481-3.384-2.278-6.969-6.249-6.969-1.67 0-3.257.688-4.421 1.84-.04.04-.087.074-.126.115-.036.038-.065.081-.1.12-.023.025-.043.053-.066.08C28.976 1.278 26.795 0 24.224 0c-.25 0-.494.017-.737.042-.015-.001-.028-.009-.043-.009-.138 0-.43.037-.586.082-.023.006-.04.023-.061.031a6.724 6.724 0 0 0-4.52 3.234 6.263 6.263 0 0 0-4.768-2.185c-5.862 0-8.463 6.918-3.836 12.871l-5.854 3.25c-.52.329-.83.898-.83 1.521zm28.505 6.405c-.126.061-.25.127-.377.185l-.003.001a16.505 16.505 0 0 1-6.941 1.509 16.556 16.556 0 0 1-10.012-3.342V19.29c0-.146.071-.276.153-.331l6.813-3.787c.848.72 1.93 1.248 3.053 1.248 1.08 0 2.248-.536 3.078-1.265l6.73 3.78c.125.08.196.209.196.355v4.305a16.635 16.635 0 0 1-2.69 1.647zm12.236-6.67a.303.303 0 0 1 .138.265v3.881c-2.953 2.216-6.505 3.222-10.105 2.97a19.791 19.791 0 0 0 1.624-1.141.744.744 0 0 0 .285-.585V19.29c0-.652-.328-1.253-.916-1.63l-3.575-2.009.87-.482c1.054.86 1.96 1.116 2.772 1.116.994 0 2.04-.487 2.817-1.138l6.09 3.426zm-8.907-15.89c2.071 0 3.89 1.353 4.532 3.213a5.55 5.55 0 0 1-3.355-1.713.744.744 0 0 0-1.183.126 5.524 5.524 0 0 1-3.82 2.64l-.001-.005a7.34 7.34 0 0 0-.049-.98l-.011-.099a8.248 8.248 0 0 0-.182-.913c.844-1.353 2.413-2.27 4.07-2.27zm-3.99 5.783a6.966 6.966 0 0 0 4.747-2.642c1.15.943 2.61 1.515 4.052 1.584-.01 2.688-2.206 7.39-4.809 7.39-2.005 0-3.718-2.868-4.358-4.857.163-.511.281-1.003.368-1.475zm.151 5.594l-1.329.736-1.342-.754c.498-.62.954-1.339 1.345-2.12.375.79.826 1.515 1.326 2.138zM28.98 9.697c-.717 2.14-2.557 5.235-4.8 5.235-2.613 0-4.838-4.296-5.262-7.044.113-.028 3.644.19 6.074-3.001 1.234 1.032 2.898 1.715 4.516 1.782.02.97-.216 2.11-.528 3.028zm-4.756-8.21c4.17 0 4.964 3.59 5.029 3.664a6.193 6.193 0 0 1-3.845-1.914.744.744 0 0 0-1.184.13 6.112 6.112 0 0 1-3.62 2.801 6.465 6.465 0 0 1-1.75.23c.204-2.732 2.394-4.91 5.37-4.91zm-5.532 10.42c.386.772.844 1.51 1.369 2.158l-1.313.73-1.36-.765a11.62 11.62 0 0 0 1.304-2.123zm-5.183-9.225c1.687 0 3.232.856 4.094 2.271-.043.15-.16.747-.175.822a5.505 5.505 0 0 1-2.731-1.594.743.743 0 0 0-1.183.13 5.568 5.568 0 0 1-4.766 2.722c.237-2.44 2.277-4.35 4.761-4.35zM8.814 8.516a7.061 7.061 0 0 0 5.463-2.693 6.938 6.938 0 0 0 3.084 1.441c.043.862.268 1.91.525 2.683-.41 1.26-1.199 2.76-2.176 3.758-.006.006-.014.009-.02.015-.612.645-1.482 1.078-2.166 1.078-2.391 0-4.262-3.762-4.71-6.282zM4.477 18.837c0-.113.05-.209.101-.243l6.174-3.426c.37.309.456.344.53.398.727.484 1.393.724 2.301.724.968 0 1.849-.41 2.624-1.041.043-.034.09-.067.132-.102l.881.495-3.67 2.041a1.905 1.905 0 0 0-.876 1.607v4.672c0 .228.105.443.285.584.475.373 1.091.809 1.624 1.142-3.651.25-7.204-.792-10.106-2.97v-3.881z"/><path fill="#FF6B09" d="M46.888 31.171a3.092 3.092 0 0 0-3.01-.165l-9.18 4.435a3.166 3.166 0 0 0-3.16-3.107l-5.264.001c-2.595-2.256-5.912-3.638-8.928-3.71-2.974-.07-5.643-.09-6.888-.096v-1.503H0v17.275h10.458v-2.069C13.325 43.879 20.866 48 24.445 48c.08 0 .16-.002.236-.007 6.294-.353 21.136-10.797 22.115-11.49a3.119 3.119 0 0 0 1.551-2.694 3.096 3.096 0 0 0-1.46-2.638zM8.97 42.814H1.488v-14.3H8.97v14.3zm37.06-7.587a.635.635 0 0 0-.065.041c-.154.11-15.421 10.907-21.367 11.24a3.651 3.651 0 0 1-.18.005c-3.14 0-10.792-4.129-13.96-6.001V30.017c1.24.005 3.894.025 6.853.095 2.755.067 5.814 1.382 8.183 3.519l.212.192 5.832-.002a1.68 1.68 0 0 1 1.678 1.678 1.68 1.68 0 0 1-1.678 1.679H20.825v1.487h10.713c1.027 0 1.932-.499 2.51-1.259l10.476-5.06a1.593 1.593 0 0 1 1.574.086c.484.303.762.805.762 1.377a1.63 1.63 0 0 1-.83 1.418zM24.917 18.238H23.43v1.38h1.487v-1.38zM24.917 20.988H23.43v1.38h1.487v-1.38zM24.917 23.74H23.43v1.379h1.487v-1.38z"/></svg>
